X: 12848
T: Fergie The Gamekeeper
R: jig
M: 6/8
K: Gmajor
|:GED G2D|EGG G2d|edB d2B|edB A2G|
GED G2D|EGG G2d|edB d2B|AGG G2z:|
|:d2B BAG|GBd e3|edB d2G|GAB AGE|
d2B BAG|GBd e3|edB d2B|AGG G2z:|

